X: 35054
T: Rolling In The Barrel
R: reel
M: 4/4
K: Adorian
DE{G}ED BE{G}E2|B2 AF DE{F}ED|DE{G}ED BE{G}E2|B2 Ac BE{G}ED|
DE{G}ED BE{G}E2|dBAF DE{F}ED|DE{G}ED BE{G}E2|BdAc BE{G}ED|
e2 ge bege|d2 df a2 fd|e2 ge bege|dBAc BE{G}ED|
e2 ge bege|d2 df a2 fd|efge fdec|dBAc BE{G}ED|
E2 BE dEBE|dBAF DE{F}ED|E2 BE dEBE|BdAc BE{G}ED|
E2 BE dEBE|dBAF DE{F}ED|afge fdec|dBAc BE{G}ED:|
Bdef gfed|B2 AF DE{F}ED|(3Bcd ef gfec|dBAc BE{G}ED|
(3Bcd ef gfed|ABAF DE{F}ED|afge fdec|dBAc BE{G}ED:|

